images_sukapura_svg/cmd/sc_searchdialog.svg

<svg viewBox="0 0 16 16" xmlns="http://www.w3.org/2000/svg" xmlns:xlink="http://www.w3.org/1999/xlink"><linearGradient id="a" gradientUnits="userSpaceOnUse" x1="-.833197" x2="-.833197" y1="25.406162" y2="10.406162"><stop offset="0" stop-color="#0040dd"/><stop offset="1" stop-color="#0a84ff"/></linearGradient><path d="m10 1a5.0003309 5.0003309 0 0 0 -5 5 5.0003309 5.0003309 0 0 0 4.9824219 5c.1456101-.443944.3467601-.857169.6289061-1.21875.614966-.7921603 1.573757-1.2656251 2.576172-1.265625.259448 0 .497103.0969847.746094.1523438v-1.6679688a.9969705.9969705 0 0 1 .996094-.9960938h.070312a5.0003309 5.0003309 0 0 0 0-.0039062 5.0003309 5.0003309 0 0 0 -5-5z" fill="#fff"/><path d="m10 0a6 6 0 0 0 -6 6 6 6 0 0 0 5.765625 5.992188c.040055-.346573.1133826-.676893.2167969-.992188a5.0003309 5.0003309 0 0 1 -4.9824219-5 5.0003309 5.0003309 0 0 1 5-5 5.0003309 5.0003309 0 0 1 5 5 5.0003309 5.0003309 0 0 1 0 .0039062h1a6 6 0 0 0 0-.0039062 6 6 0 0 0 -6-6z" fill="#616165"/><rect fill="#616165" height="7" rx=".568545" transform="matrix(-.70710678 -.70710678 .70710678 -.70710678 0 0)" width="2" x="-12.606602" y="-9.121321"/><path d="m20.063649 23.647346q0-2.436453 1.154625-3.913981 1.154624-1.487313 3.02355-1.487313 1.859141 0 2.945271 1.272044v-5.518714h1.810216v15.029688h-1.663442l-.08806-1.135055q-1.08613 1.330754-3.023551 1.330754-1.839571 0-3.00398-1.506883-1.154625-1.506882-1.154625-3.933551zm1.810217.205484q0 1.800431.743656 2.818066.743657 1.017635 2.05484 1.017635 1.722152 0 2.514733-1.546022v-4.863122q-.812151-1.497097-2.495163-1.497097-1.330753 0-2.07441 1.02742-.743656 1.02742-.743656 3.04312z" fill="url(#a)" transform="matrix(.59160631 0 0 .59160631 -1.154992 -1.282123)"/><path d="m21.356641 16.781919q-.156559-.313118-.254409-1.115484-1.262258 1.311184-3.013765 1.311184-1.565592 0-2.573443-.880646-.998065-.890431-.998065-2.250539 0-1.653657 1.252474-2.563658 1.262259-.919786 3.542153-.919786h1.761292v-.8317205q0-.9491404-.567528-1.5068827-.567527-.5675273-1.673227-.5675273-.96871 0-1.624302.4892477-.655592.4892476-.655592 1.1839792h-1.820001q0-.7925811.557743-1.5264526.567527-.7436564 1.526452-1.1741943.96871-.4305379 2.123335-.4305379 1.829786 0 2.866991.9197855 1.037205.9100006 1.076345 2.5147329v4.872906q0 1.457958.371828 2.319034v.156559zm-3.00398-1.379678q.851291 0 1.614517-.440323.763226-.440323 1.1057-1.144839v-2.17226h-1.418819q-3.326883 0-3.326883 1.947206 0 .851291.567527 1.330753.567527.479463 1.457958.479463z" fill="#616165" transform="matrix(.58534743 0 0 .58534743 -1.383904 -1.467609)"/></svg>

<?xml version="1.0" encoding="UTF-8" standalone="no"?>
<svg
   xmlns:dc="http://purl.org/dc/elements/1.1/"
   xmlns:cc="http://creativecommons.org/ns#"
   xmlns:rdf="http://www.w3.org/1999/02/22-rdf-syntax-ns#"
   xmlns:svg="http://www.w3.org/2000/svg"
   xmlns="http://www.w3.org/2000/svg"
   xmlns:xlink="http://www.w3.org/1999/xlink"
   xmlns:sodipodi="http://sodipodi.sourceforge.net/DTD/sodipodi-0.dtd"
   xmlns:inkscape="http://www.inkscape.org/namespaces/inkscape"
   viewBox="0 0 16 16"
   version="1.1"
   id="svg10"
   sodipodi:docname="sc_searchdialog.svg"
   inkscape:version="0.92.3 (unknown)">
  <metadata
     id="metadata16">
    <rdf:RDF>
      <cc:Work
         rdf:about="">
        <dc:format>image/svg+xml</dc:format>
        <dc:type
           rdf:resource="http://purl.org/dc/dcmitype/StillImage" />
      </cc:Work>
    </rdf:RDF>
  </metadata>
  <defs
     id="defs14">
    <linearGradient
       inkscape:collect="always"
       xlink:href="#a"
       id="linearGradient879"
       x1="24.997311"
       y1="28.999382"
       x2="24.997311"
       y2="13.999382"
       gradientUnits="userSpaceOnUse" />
    <linearGradient
       gradientTransform="translate(-25.830508,-3.5932203)"
       id="a"
       gradientUnits="userSpaceOnUse"
       x1="14"
       x2="13.79661"
       y1="22"
       y2="2.1355929">
      <stop
         offset="0"
         stop-color="#0040dd"
         id="stop2" />
      <stop
         offset="1"
         stop-color="#0a84ff"
         id="stop4" />
    </linearGradient>
    <linearGradient
       inkscape:collect="always"
       xlink:href="#a"
       id="linearGradient846"
       gradientUnits="userSpaceOnUse"
       x1="24.997311"
       y1="28.999382"
       x2="24.997311"
       y2="13.999382" />
  </defs>
  <sodipodi:namedview
     pagecolor="#ffffff"
     bordercolor="#666666"
     borderopacity="1"
     objecttolerance="10"
     gridtolerance="10"
     guidetolerance="10"
     inkscape:pageopacity="0"
     inkscape:pageshadow="2"
     inkscape:window-width="1366"
     inkscape:window-height="699"
     id="namedview12"
     showgrid="true"
     inkscape:snap-global="true"
     inkscape:zoom="11.313709"
     inkscape:cx="5.3738705"
     inkscape:cy="0.72327389"
     inkscape:window-x="0"
     inkscape:window-y="0"
     inkscape:window-maximized="1"
     inkscape:current-layer="svg10">
    <inkscape:grid
       type="xygrid"
       id="grid823" />
  </sodipodi:namedview>
  <path
     style="opacity:1;fill:#ffffff;fill-opacity:1;stroke:none;stroke-width:0.83338851;stroke-linecap:round;stroke-linejoin:round;stroke-miterlimit:4;stroke-dasharray:none;stroke-opacity:0"
     d="M 10 1 A 5.0003309 5.0003309 0 0 0 5 6 A 5.0003309 5.0003309 0 0 0 9.9824219 11 C 10.128032 10.556056 10.329182 10.142831 10.611328 9.78125 C 11.226294 8.9890897 12.185085 8.5156249 13.1875 8.515625 C 13.446948 8.515625 13.684603 8.6126097 13.933594 8.6679688 L 13.933594 7 A 0.9969705 0.9969705 0 0 1 14.929688 6.0039062 L 15 6.0039062 A 5.0003309 5.0003309 0 0 0 15 6 A 5.0003309 5.0003309 0 0 0 10 1 z "
     id="circle879" />
  <path
     style="opacity:1;fill:#616165;fill-opacity:1;stroke:none;stroke-width:1;stroke-linecap:round;stroke-linejoin:round;stroke-miterlimit:4;stroke-dasharray:none;stroke-opacity:0"
     d="M 10 0 A 6 6 0 0 0 4 6 A 6 6 0 0 0 9.765625 11.992188 C 9.80568 11.645615 9.8790076 11.315295 9.9824219 11 A 5.0003309 5.0003309 0 0 1 5 6 A 5.0003309 5.0003309 0 0 1 10 1 A 5.0003309 5.0003309 0 0 1 15 6 A 5.0003309 5.0003309 0 0 1 15 6.0039062 L 16 6.0039062 A 6 6 0 0 0 16 6 A 6 6 0 0 0 10 0 z "
     id="path877" />
  <rect
     fill="#616165"
     height="7"
     rx=".568545"
     transform="matrix(-.70710678 -.70710678 .70710678 -.70710678 0 0)"
     width="2"
     x="-12.606602"
     y="-9.121321"
     id="rect8" />
  <g
     aria-label="d"
     style="font-style:normal;font-weight:normal;font-size:20.03958321px;line-height:1.25;font-family:sans-serif;letter-spacing:0px;word-spacing:0px;fill:url(#linearGradient879);fill-opacity:1;stroke:none;stroke-width:0.50098956"
     id="text854"
     transform="matrix(0.59160631,0,0,0.59160631,-1.1549923,-1.2821228)">
    <path
       d="m 20.063649,23.647346 q 0,-2.436453 1.154625,-3.913981 1.154624,-1.487313 3.02355,-1.487313 1.859141,0 2.945271,1.272044 v -5.518714 h 1.810216 V 29.02907 h -1.663442 l -0.08806,-1.135055 q -1.08613,1.330754 -3.023551,1.330754 -1.839571,0 -3.00398,-1.506883 -1.154625,-1.506882 -1.154625,-3.933551 z m 1.810217,0.205484 q 0,1.800431 0.743656,2.818066 0.743657,1.017635 2.05484,1.017635 1.722152,0 2.514733,-1.546022 v -4.863122 q -0.812151,-1.497097 -2.495163,-1.497097 -1.330753,0 -2.07441,1.02742 -0.743656,1.02742 -0.743656,3.04312 z"
       style="font-style:normal;font-variant:normal;font-weight:normal;font-stretch:normal;font-family:Roboto;-inkscape-font-specification:Roboto;fill:url(#linearGradient846);fill-opacity:1;stroke-width:0.50098956"
       id="path856"
       inkscape:connector-curvature="0" />
  </g>
  <g
     transform="matrix(0.58534743,0,0,0.58534743,-1.3839035,-1.467609)"
     aria-label="a"
     style="font-style:normal;font-weight:normal;font-size:20.03958321px;line-height:1.25;font-family:sans-serif;letter-spacing:0px;word-spacing:0px;fill:#616165;fill-opacity:1;stroke:none;stroke-width:0.50098956"
     id="text832">
    <path
       inkscape:connector-curvature="0"
       d="m 21.356641,16.781919 q -0.156559,-0.313118 -0.254409,-1.115484 -1.262258,1.311184 -3.013765,1.311184 -1.565592,0 -2.573443,-0.880646 -0.998065,-0.890431 -0.998065,-2.250539 0,-1.653657 1.252474,-2.563658 1.262259,-0.919786 3.542153,-0.919786 h 1.761292 V 9.5312695 q 0,-0.9491404 -0.567528,-1.5068827 -0.567527,-0.5675273 -1.673227,-0.5675273 -0.96871,0 -1.624302,0.4892477 -0.655592,0.4892476 -0.655592,1.1839792 h -1.820001 q 0,-0.7925811 0.557743,-1.5264526 0.567527,-0.7436564 1.526452,-1.1741943 0.96871,-0.4305379 2.123335,-0.4305379 1.829786,0 2.866991,0.9197855 1.037205,0.9100006 1.076345,2.5147329 v 4.872906 q 0,1.457958 0.371828,2.319034 v 0.156559 z m -3.00398,-1.379678 q 0.851291,0 1.614517,-0.440323 0.763226,-0.440323 1.1057,-1.144839 v -2.17226 h -1.418819 q -3.326883,0 -3.326883,1.947206 0,0.851291 0.567527,1.330753 0.567527,0.479463 1.457958,0.479463 z"
       style="font-style:normal;font-variant:normal;font-weight:normal;font-stretch:normal;font-family:Roboto;-inkscape-font-specification:Roboto;fill:#616165;fill-opacity:1;stroke-width:0.50098956"
       id="path881" />
  </g>
</svg>
